X: 3
T: The Gallowglass
R: jig
M: 6/8
L: 1/8
K: Edor
F|:GFE BFA|GEE E2F|GFE Bcd|AFD DEF|
GFE BFA|GFE B2A|GFE DEF|1GEE E2F:|2GEE E2B||
|:e3 B2A|GB2 E2F|GFE Bcd|AFD D2B|
|1e3 B2A|GFE B2A|GFE DEF|GEE E2B:|
|2eBd cAF|BGE FDB,|EFG GFA|GEE E2F|]


Tune 1369	Setting 14721

